X:3537
T:Crock of Gold, The
R:reel
C:Vincent Broderick
Z:Devin McCabe
M:4/4
L:1/8
K:G
~B3B BAGE|G2AG GEDB,|DEGA BAGA|B2dB BAGA|
!~B3B BAGE|G2AG GEDf|g2fg egdA|DEGA BGG2:|
!|:ea~a2 bagb|a2ba gede|gedB GABd|egdB BAA2|
!ea~a2 bagb|a2ba gede|g2fg edBA|DEGA BGG2:|


